svgs/document.svg

<!-- Generated by IcoMoon.io -->
<svg version="1.1" xmlns="http://www.w3.org/2000/svg" width="1500" height="1500" viewBox="0 0 1500 1500">
<title>document</title>
<path d="M750 675c-41.421 0-75-33.58-75-75v-450h-375.341l0.305 600h224.817c41.543 0 75.22 33.823 75.22 75.321v299.361c0 41.599-33.639 75.321-75.22 75.321h-224.782l0.001 150 899.84 0.001 0.164-675h-450.004zM1200 525l-375-375v375h375zM150 1200c-41.442-0.12-75-33.896-75-75.319v-299.361c0-41.525 33.521-75.201 75-75.319v-600c0-82.844 67.191-150.001 149.66-150.001h548.049c20.692 0 49.427 11.962 63.791 26.332l412.178 412.332c14.537 14.543 26.323 43.434 26.323 63.781v847.611c0 82.812-67.088 149.944-150.16 149.944h-899.681c-82.931 0-150.16-67.367-150.16-150.001v-150z"></path>
</svg>

<svg xmlns="http://www.w3.org/2000/svg" width="1500" height="1500" viewBox="0 0 1500 1500"><path d="M750 675c-41.421 0-75-33.58-75-75V150H299.659l.305 600h224.817c41.543 0 75.22 33.823 75.22 75.321v299.361c0 41.599-33.639 75.321-75.22 75.321H299.999l.001 150 899.84.001.164-675H750zm450-150L825 150v375h375zM150 1200c-41.442-.12-75-33.896-75-75.319V825.32c0-41.525 33.521-75.201 75-75.319v-600C150 67.157 217.191 0 299.66 0h548.049c20.692 0 49.427 11.962 63.791 26.332l412.178 412.332c14.537 14.543 26.323 43.434 26.323 63.781v847.611c0 82.812-67.088 149.944-150.16 149.944H300.16c-82.931 0-150.16-67.367-150.16-150.001v-150z"/></svg>
